X:1
T:Title
%%score { ( 1 3 ) | ( 2 4 ) }
L:1/8
M:4/4
K:Bb
V:1 treble nm="Grand Piano"
V:3 treble 
V:2 bass 
V:4 bass 
V:1
 z4 z2[Q:1/4=94] [B,D][CE] | [DF][_D=E][=DF][DB] [Fd][DB][_EA][FB] |[M:3/4] [FG]B GB F2 | %3
[M:1/4] D[CE] |[M:4/4] [DF]2 [Fd]>[Fc] [FB]2 [Fd]2 | c6 DE | [DF][_D=E][=DF][DB] [Fd][DB][EA][FB] | %7
 [Gc][G=B][Gc][G_B] G2 AG | F2 B>B A2 c2 |[M:3/4] [DB]6 |[M:1/4] [Fd][Fd] |[M:4/4] dccB c2 dc | %12
[M:3/4] [Ec][DB] [EG][_DB] [=DF]2 |[M:1/4] [DF][DF] | %14
[M:19/16] z/ z/ z/ z/ z/ z/ z/ z/ z/ z/ z/ z/ z/ z [FB][Gc] |[M:7/8] d>Bc B [DB]3 |] %16
V:2
 z4 z2 [B,,F,][B,,F,] | [B,,B,][B,,B,][B,,B,][B,,B,] [B,,B,][B,,F,][C,F,][D,B,] | %2
[M:3/4] [E,B,][E,G,E] [E,B,E][G,B,E] [B,D]2 |[M:1/4] [B,,F,B,][B,,F,] | %4
[M:4/4] [B,,B,]2 [B,,B,]>[C,A,] [D,B,]2 [B,,B,]2 | [F,A,F]6 [F,B,][F,C] | %6
 [B,,F,][B,,G,][B,,F,][B,,F,] [B,,B,][B,,F,][C,F,][D,F,] | %7
 [E,G,][E,G,][E,G,][E,G,] [E,B,E]2 [=E,B,_D][E,B,D] | [F,B,D]2 [F,DF]>[F,DF] [F,CE]2 [F,A,E]2 | %9
[M:3/4] [B,,B,]6 |[M:1/4] [B,,B,][D,B,] | %11
[M:4/4] [F,B,F][F,A,E][F,A,E][F,_A,D] [F,=A,E]2 [F,A,F][F,A,E] | %12
[M:3/4] [B,,B,][B,,F,] [B,,G,][B,,=E,] [B,,F,]2 |[M:1/4] [B,,B,][B,,B,] | %14
[M:19/16] (7:8:15[E,B,E]/-[E,B,E]3/32[E,G,E]3/2-[E,G,E]/4-[E,G,E]/32[E,G,E]-[E,G,E]3/16[E,G,E]/-[E,G,E]3/32[B,,F,]/-[B,,F,]3/32[B,,B,]3/2-[B,,B,]/4-[B,,B,]/32 z/ z3/2 | %15
[M:7/8] [F,B,F]>[F,B,D][F,A,E] [F,B,D] [B,,B,]3 |] %16
V:3
 x8 | x8 |[M:3/4] x6 |[M:1/4] x2 |[M:4/4] x8 | x8 | x8 | x8 | x8 |[M:3/4] x6 |[M:1/4] x2 | %11
[M:4/4] x8 |[M:3/4] x6 |[M:1/4] x2 | %14
[M:19/16] (7:8:18G/-G3/32B3/2-B/4-B/32B-B3/16B/-B3/32[DB]/-[DB]3/32[DF]3/2-[DF]/4-[DF]/32 z/ z3/32 z z3/16 | %15
[M:7/8] x7 |] %16
V:4
 x8 | x8 |[M:3/4] x6 |[M:1/4] x2 |[M:4/4] x8 | x8 | x8 | x8 | x8 |[M:3/4] x6 |[M:1/4] x2 | %11
[M:4/4] x8 |[M:3/4] x6 |[M:1/4] x2 | %14
[M:19/16] z/ z/ z/ z/ z/ z/ z/ z/ z/ z/ z/ z/ z/ z [D,B,][E,B,] |[M:7/8] x7 |] %16

